icon/lg/rxdb.svg

<?xml version="1.0" encoding="UTF-8"?>
<svg viewBox="0 0 256 187" version="1.1" xmlns="http://www.w3.org/2000/svg" xmlns:xlink="http://www.w3.org/1999/xlink" preserveAspectRatio="xMidYMid" height="1em" width="1em">
  <g>
    <polygon fill="#5F2688" points="0 121.1855 0 159.4535 49.749 159.4535 49.749 168.3835 58.679 168.3835 58.679 159.4535 67.608 159.4535 67.608 168.3835 67.608 177.3125 76.538 177.3125 76.538 168.3835 76.538 159.4535 85.467 159.4535 85.467 168.3835 85.467 177.3125 94.396 177.3125 94.396 186.2425 103.326 186.2425 103.326 177.3125 103.326 168.3835 112.255 168.3835 112.255 177.3125 121.184 177.3125 121.184 168.3835 121.184 159.4535 121.184 121.1855"/>
    <path d="M0,112.256 L121.184,112.256 L121.184,73.987 L0,73.987 L0,112.256 Z M144.2917,92.6121 C145.6687,92.6121 146.7347,92.1871 147.4907,91.3391 C148.2467,90.4891 148.6247,89.2751 148.6247,87.6961 C148.6247,84.3401 147.2807,82.6611 144.5937,82.6611 L139.3037,82.6611 L139.3037,92.6121 L144.2917,92.6121 Z M129.8297,74.1321 L146.7097,74.1321 C150.5397,74.1321 153.4287,75.3561 155.3767,77.8041 C157.3247,80.2531 158.2997,83.5491 158.2997,87.6961 C158.2997,90.2221 157.7617,92.4641 156.6867,94.4181 C155.6117,96.3731 154.1497,97.8831 152.3037,98.9491 C152.6727,99.3041 152.9917,99.7191 153.2607,100.1931 C153.5287,100.6671 153.8317,101.3581 154.1677,102.2661 L157.8957,112.2761 L148.0207,112.2761 L144.5937,103.0951 C144.3247,102.3841 143.9977,101.8821 143.6107,101.5851 C143.2257,101.2891 142.6797,101.1401 141.9737,101.1401 L139.3037,101.1401 L139.3037,112.2761 L129.8297,112.2761 L129.8297,74.1321 L129.8297,74.1321 Z M170.0397,98.0017 L161.1717,84.2007 L171.4497,84.2007 L175.1787,90.1237 L178.9577,84.2007 L189.1857,84.2007 L180.3687,98.0017 L189.5897,112.2757 L179.2097,112.2757 L175.1787,105.9977 L171.1477,112.2757 L160.8177,112.2757 L170.0397,98.0017 Z M206.4186,103.7468 C208.0986,103.7468 209.4586,103.4608 210.5006,102.8888 C211.5416,102.3148 212.3396,101.2888 212.8936,99.8088 C213.4476,98.3278 213.7256,96.2048 213.7256,93.4408 C213.7256,90.6378 213.4736,88.4558 212.9696,86.8958 C212.4656,85.3368 211.6846,84.2398 210.6266,83.6088 C209.5676,82.9768 208.1656,82.6608 206.4186,82.6608 L202.5896,82.6608 L202.5896,103.7468 L206.4186,103.7468 Z M193.1166,74.1318 L207.6286,74.1318 C212.8016,74.1318 216.7236,75.6618 219.3936,78.7228 C222.0646,81.7818 223.3986,86.6878 223.3986,93.4408 C223.3986,99.8778 222.0646,104.6258 219.3936,107.6848 C216.7236,110.7458 212.8016,112.2758 207.6286,112.2758 L193.1166,112.2758 L193.1166,74.1318 L193.1166,74.1318 Z M242.5974,104.5173 C243.8734,104.5173 244.8144,104.2013 245.4184,103.5693 C246.0234,102.9373 246.3264,101.8913 246.3264,100.4303 C246.3264,99.1663 246.0154,98.2283 245.3934,97.6173 C244.7724,97.0043 243.7734,96.6993 242.3954,96.6993 L236.0464,96.6993 L236.0464,104.5173 L242.5974,104.5173 Z M242.1944,89.3543 C244.5114,89.3543 245.6704,88.1293 245.6704,85.6813 C245.6704,84.4173 245.3764,83.4803 244.7884,82.8683 C244.2014,82.2563 243.2514,81.9503 241.9424,81.9503 L236.0464,81.9503 L236.0464,89.3543 L242.1944,89.3543 L242.1944,89.3543 Z M226.9264,74.1313 L244.7634,74.1313 C248.0224,74.1313 250.5164,75.0393 252.2454,76.8563 C253.9764,78.6723 254.8414,81.2793 254.8414,84.6743 C254.8414,86.5703 254.5384,88.2083 253.9344,89.5903 C253.3294,90.9733 252.5064,92.0593 251.4654,92.8483 C252.9774,93.5593 254.1104,94.5273 254.8664,95.7503 C255.6214,96.9753 255.9994,98.7123 255.9994,100.9633 C255.9994,104.5563 255.0594,107.3403 253.1784,109.3143 C251.2974,111.2883 248.6264,112.2763 245.1664,112.2763 L226.9264,112.2763 L226.9264,74.1313 L226.9264,74.1313 Z" fill="#8D1F89"/>
    <polygon fill="#E6008D" points="17.8587 0.0005 17.8587 8.9305 17.8587 17.8595 8.9297 17.8595 8.9297 8.9305 -0.0003 8.9305 -0.0003 17.8595 -0.0003 26.7885 -0.0003 65.0575 121.1837 65.0575 121.1837 26.7885 71.4347 26.7885 71.4347 17.8595 62.5057 17.8595 62.5057 26.7885 53.5757 26.7885 53.5757 17.8595 53.5757 8.9305 44.6467 8.9305 44.6467 17.8595 44.6467 26.7885 35.7177 26.7885 35.7177 17.8595 35.7177 8.9305 26.7887 8.9305 26.7887 0.0005"/>
  </g>
</svg>

<svg width="256" height="187" xmlns="http://www.w3.org/2000/svg" preserveAspectRatio="xMidYMid"><path fill="#5F2688" d="M0 121.186v38.267h49.749v8.93h8.93v-8.93h8.929v17.86h8.93v-17.86h8.929v17.86h8.929v8.93h8.93v-17.86h8.929v8.93h8.929v-56.127z"/><path d="M0 112.256h121.184V73.987H0v38.269Zm144.292-19.644c1.377 0 2.443-.425 3.199-1.273.756-.85 1.134-2.064 1.134-3.643 0-3.356-1.344-5.035-4.031-5.035h-5.29v9.951h4.988Zm-14.462-18.48h16.88c3.83 0 6.719 1.224 8.667 3.672 1.948 2.45 2.923 5.745 2.923 9.892 0 2.526-.538 4.768-1.613 6.722-1.075 1.955-2.537 3.465-4.383 4.531.369.355.688.77.957 1.244.268.474.57 1.165.907 2.073l3.728 10.01h-9.875l-3.427-9.18c-.27-.712-.596-1.214-.983-1.51-.385-.297-.931-.446-1.637-.446h-2.67v11.136h-9.474V74.132Zm40.21 23.87L161.172 84.2h10.278l3.729 5.923 3.779-5.923h10.228L180.369 98l9.22 14.275h-10.38l-4.03-6.278-4.031 6.278h-10.33l9.222-14.274Zm36.379 5.745c1.68 0 3.04-.286 4.082-.858 1.04-.574 1.839-1.6 2.393-3.08.554-1.481.832-3.604.832-6.368 0-2.803-.252-4.985-.756-6.545-.504-1.56-1.285-2.656-2.343-3.287-1.06-.632-2.461-.948-4.208-.948h-3.83v21.086h3.83Zm-13.302-29.615h14.512c5.173 0 9.095 1.53 11.765 4.59 2.67 3.06 4.005 7.966 4.005 14.719 0 6.437-1.334 11.185-4.005 14.244-2.67 3.06-6.592 4.59-11.765 4.59h-14.512V74.133Zm49.48 30.385c1.276 0 2.217-.316 2.821-.948.605-.632.908-1.678.908-3.139 0-1.264-.31-2.202-.933-2.813-.62-.613-1.62-.918-2.998-.918h-6.349v7.818h6.551Zm-.403-15.163c2.317 0 3.476-1.225 3.476-3.673 0-1.264-.294-2.2-.882-2.813-.587-.612-1.537-.918-2.846-.918h-5.896v7.404h6.148Zm-15.268-15.223h17.837c3.26 0 5.753.908 7.482 2.725 1.731 1.816 2.596 4.423 2.596 7.818 0 1.896-.303 3.534-.907 4.916-.605 1.383-1.428 2.47-2.469 3.258 1.512.711 2.645 1.68 3.401 2.902.755 1.225 1.133 2.962 1.133 5.213 0 3.593-.94 6.377-2.82 8.351-1.882 1.974-4.553 2.962-8.013 2.962h-18.24V74.131Z" fill="#8D1F89"/><path fill="#E6008D" d="M17.859 0v17.86h-8.93V8.93H0v56.128h121.185v-38.27h-49.75V17.86h-8.928v8.928h-8.93V8.93h-8.93v17.858h-8.928V8.93h-8.93V0z"/></svg>
